build/assets/img/footer-logo.svg

<svg width="128" height="33" viewBox="0 0 128 33" fill="none" xmlns="http://www.w3.org/2000/svg">
<g clip-path="url(#clip0)">
<path d="M30.5437 32.3739H3.86732C3.23148 32.3767 2.60584 32.2134 2.05178 31.8999C1.49772 31.5865 1.03428 31.1337 0.706936 30.586C0.379595 30.0383 0.1996 29.4144 0.184613 28.7757C0.169626 28.137 0.320163 27.5054 0.621451 26.9427L9.53302 10.0983H17.5466L10.0643 24.2186C10.0196 24.3028 9.99619 24.3969 9.99619 24.4924C9.99619 24.5879 10.0196 24.6819 10.0643 24.7662C10.1143 24.8497 10.1852 24.9184 10.2701 24.9656C10.3549 25.0128 10.4506 25.0366 10.5476 25.0348H24.0383C24.1197 25.0357 24.2 25.0157 24.2716 24.9769C24.3432 24.938 24.4038 24.8815 24.4477 24.8126C24.4915 24.7437 24.5172 24.6647 24.5224 24.5831C24.5275 24.5015 24.5119 24.4199 24.477 24.346L13.5261 0.689453H21.2997L33.7348 27.3319C33.9845 27.8707 34.0958 28.4638 34.0587 29.057C34.0216 29.6501 33.8372 30.2245 33.5223 30.7277C33.2057 31.2335 32.7662 31.6501 32.2451 31.9381C31.724 32.2261 31.1385 32.3761 30.5437 32.3739ZM10.4927 11.7101L2.03702 27.6935C1.86906 28.011 1.7857 28.3667 1.79506 28.7261C1.80441 29.0855 1.90615 29.4363 2.09039 29.7445C2.27463 30.0527 2.53509 30.3077 2.84646 30.4848C3.15784 30.6619 3.50952 30.7551 3.86732 30.7552H30.5575C30.882 30.7571 31.2016 30.676 31.4863 30.5195C31.771 30.363 32.0114 30.1363 32.1848 29.8608C32.3583 29.5852 32.4591 29.2698 32.4778 28.9443C32.4966 28.6188 32.4325 28.2938 32.2918 28L20.2954 2.28401H16.035L25.9337 23.6365C26.0842 23.9554 26.1509 24.3076 26.1275 24.6597C26.1041 25.0117 25.9914 25.3519 25.8001 25.6478C25.6115 25.9454 25.3511 26.1902 25.0431 26.3594C24.735 26.5286 24.3894 26.6167 24.0383 26.6156H10.5476C10.176 26.6116 9.81177 26.5115 9.48992 26.325C9.16807 26.1384 8.89947 25.8717 8.71003 25.5505C8.52059 25.2294 8.41669 24.8646 8.40835 24.4913C8.40002 24.1181 8.48752 23.749 8.66243 23.4196L14.8731 11.7101H10.4927Z" fill="#FF0000"/>
<path d="M47.0262 32.3739H39.2595L26.8278 5.72109C26.5762 5.18326 26.4639 4.59032 26.5011 3.99722C26.5384 3.40413 26.724 2.83008 27.0409 2.32829C27.3578 1.8265 27.7956 1.4132 28.3137 1.12672C28.8319 0.840243 29.4137 0.689844 30.0051 0.689469H56.6919C57.3262 0.687601 57.9503 0.851108 58.5029 1.16402C59.0556 1.47692 59.5181 1.92853 59.8451 2.47472C60.1722 3.02091 60.3526 3.643 60.3689 4.28021C60.3851 4.91743 60.2365 5.54798 59.9377 6.11026L51.0262 22.9547H43.0297L50.5086 8.83443C50.5542 8.74982 50.5781 8.65513 50.5781 8.55891C50.5781 8.4627 50.5542 8.368 50.5086 8.2834C50.4592 8.20018 50.3888 8.13153 50.3046 8.08436C50.2203 8.0372 50.1252 8.0132 50.0287 8.01477H36.5174C36.4347 8.01383 36.3532 8.03423 36.2805 8.07403C36.2079 8.11383 36.1467 8.17169 36.1027 8.24207C36.0585 8.31121 36.0328 8.39062 36.028 8.47265C36.0232 8.55468 36.0395 8.63658 36.0753 8.71045L47.0262 32.3739ZM40.2672 30.7552H44.5139L34.6152 9.40268C34.4636 9.08174 34.3957 8.72738 34.4178 8.37285C34.4398 8.01832 34.5512 7.67522 34.7413 7.37575C34.9314 7.07627 35.1942 6.83022 35.5048 6.66068C35.8155 6.49114 36.1639 6.40366 36.5174 6.40644H50.0082C50.385 6.40774 50.755 6.50795 51.0814 6.69714C51.4079 6.88634 51.6794 7.15796 51.8692 7.48508C52.059 7.8122 52.1604 8.18348 52.1635 8.56212C52.1665 8.94075 52.071 9.31362 51.8865 9.64376L45.6758 21.3532H50.0562L58.5119 5.37325C58.6843 5.05661 58.7712 4.7001 58.7639 4.33921C58.7566 3.97833 58.6554 3.62566 58.4702 3.31632C58.2851 3.00699 58.0226 2.75178 57.7087 2.5761C57.3949 2.40042 57.0408 2.31041 56.6816 2.31502H30.0051C29.6803 2.31255 29.3603 2.39324 29.0751 2.54947C28.79 2.7057 28.5491 2.93232 28.3752 3.20798C28.2014 3.48364 28.1002 3.79925 28.0814 4.12505C28.0625 4.45086 28.1265 4.77612 28.2674 5.07018L40.2672 30.7552Z" fill="white"/>
<path d="M100.888 12.6639C102.732 13.5616 104.495 14.48 106.176 15.4191L104.853 17.5991C103.119 16.5315 101.507 15.597 100.017 14.7957V18.033H97.3949V14.5891C96.1796 15.8697 94.7534 16.9299 93.1791 17.7231C92.6697 16.8952 92.1028 16.1046 91.4825 15.3571C93.3824 14.7887 95.1327 13.8029 96.6066 12.471H92.4936V6.49577H97.3915V5.20773H91.7944V2.71775H97.3949V0.930332H100.017V2.71775H105.679V5.20773H100.017V6.49577H104.936V12.4779H100.017V14.0759L100.888 12.6639ZM94.8517 18.4773C97.6075 18.56 101.444 18.5462 106.361 18.436C105.964 19.4692 105.631 20.3336 105.371 21.0534C101.347 21.0534 97.6406 21.0189 94.2519 20.9501C92.1565 20.9501 90.4965 20.2785 89.2717 18.9353C88.7187 19.5713 87.9681 20.4289 87.0198 21.508L85.8613 18.4084C86.412 17.9102 87.0598 17.3431 87.8047 16.7071V10.9178H85.9641V8.16264H90.3891V16.7347C91.2026 17.8964 92.6901 18.4773 94.8517 18.4773ZM88.713 0.909668C89.6796 2.37679 90.5136 3.73371 91.2151 4.98043C90.1663 5.52113 89.3197 5.96884 88.6719 6.33046C87.9864 4.91843 87.2358 3.52019 86.42 2.13572L88.713 0.909668ZM102.622 8.65513H100.017V10.3323H102.622V8.65513ZM94.8106 10.3323H97.3949V8.65513H94.8106V10.3323ZM107.253 12.0543H115.664V4.41906H108.154V1.66389H126.423V4.41906H118.803V12.0543H127.348V14.8095H118.814V21.2394H115.674V14.7819H107.253V12.0543ZM108.449 6.30291L110.618 4.822C111.941 6.37179 113.312 8.09376 114.731 9.98794L112.233 11.6479C110.841 9.51497 109.58 7.7287 108.449 6.28913V6.30291ZM126.471 6.50954C125.011 8.26826 123.467 9.99827 121.84 11.6996L119.732 9.97761C121.286 8.36394 122.724 6.64104 124.034 4.822L126.471 6.50954Z" fill="white"/>
<path d="M69.9551 15.3672H76.2789V11.5031H71.1924V10.0084H76.2789V6.68501H70.5755V5.19033H74.3457C73.6922 4.29949 72.9656 3.39258 72.1658 2.4696L73.4066 1.51562C74.2109 2.38121 75.0107 3.27434 75.8059 4.19502L74.5034 5.19033H78.1709C79.1011 4.0329 79.9399 2.80426 80.6798 1.51562L82.3113 2.51093C81.5527 3.46835 80.7918 4.36148 80.0286 5.19033H84.0285V6.68501H77.9721V10.0084H83.0962V11.5031H77.9721V15.3672H84.3781V16.8757H77.9721V21.99H76.2789V16.8757H69.9551V15.3672Z" fill="#FF0000"/>
<path d="M67.4536 13.373C68.0297 13.697 68.6237 13.9879 69.2325 14.2444C68.4305 16.5702 67.5759 19.0958 66.6687 21.8211L64.8281 20.9256C65.8982 18.4808 66.776 15.9556 67.4536 13.373Z" fill="#FF0000"/>
<path d="M65.2215 7.23291C66.5034 8.02043 67.8116 8.90667 69.1461 9.89165L67.991 11.407C66.7874 10.3961 65.5286 9.45327 64.2207 8.58294L65.2215 7.23291Z" fill="#FF0000"/>
<path d="M66.2119 1.84717C67.6446 2.80459 68.9333 3.75282 70.0781 4.69188L68.9402 6.12456C67.6172 4.95132 66.3604 3.93421 65.1699 3.07322L66.2119 1.84717Z" fill="#FF0000"/>
<path d="M70.2305 32.3739H69.5142L68.9315 30.8172H66.5905L66.0387 32.3739H65.3086L67.4268 26.8257H68.0952L70.2305 32.3739ZM68.7361 30.2421L67.8518 27.8968C67.8149 27.7749 67.7863 27.6506 67.7661 27.5248C67.7469 27.6511 67.7171 27.7755 67.677 27.8968L66.8201 30.2593L68.7361 30.2421Z" fill="#FF0000"/>
<path d="M70.7934 32.1567V31.3887C70.8876 31.4724 70.9925 31.543 71.1053 31.5988C71.2297 31.6617 71.3593 31.7135 71.4926 31.7538C71.6249 31.7968 71.76 31.8301 71.8971 31.8537C72.0215 31.876 72.1477 31.8875 72.2741 31.8881C72.5869 31.9116 72.899 31.8344 73.1652 31.6677C73.2631 31.5936 73.3412 31.4963 73.3926 31.3846C73.444 31.2728 73.4672 31.15 73.46 31.0271C73.4642 30.8899 73.431 30.7541 73.364 30.6345C73.2907 30.5183 73.198 30.4158 73.0898 30.3314C72.9622 30.2317 72.8256 30.1441 72.682 30.0697C72.5243 29.9836 72.3392 29.8975 72.1713 29.8045C72.0033 29.7115 71.7977 29.6082 71.6331 29.5049C71.4748 29.4081 71.3286 29.2925 71.1978 29.1605C71.0761 29.042 70.9774 28.9019 70.9065 28.7472C70.8339 28.5883 70.7953 28.4158 70.7934 28.2409C70.7875 28.0096 70.8443 27.781 70.9579 27.5797C71.0679 27.3959 71.2164 27.2384 71.3932 27.1182C71.5821 26.9933 71.7907 26.9013 72.0102 26.8461C72.2341 26.7881 72.4644 26.758 72.6957 26.7566C73.1021 26.7299 73.5093 26.7983 73.885 26.9563V27.6865C73.5122 27.4445 73.074 27.3242 72.6305 27.3421C72.4888 27.3416 72.3475 27.3566 72.209 27.3868C72.0764 27.4145 71.9491 27.4634 71.8319 27.5315C71.7244 27.5972 71.6321 27.6853 71.5612 27.7898C71.4891 27.9063 71.4533 28.0418 71.4583 28.179C71.454 28.3053 71.4811 28.4308 71.5372 28.544C71.5937 28.6539 71.6732 28.7503 71.7702 28.8264C71.8861 28.9216 72.0113 29.0047 72.1438 29.0744L72.6545 29.3396C72.8533 29.436 73.0384 29.5393 73.2166 29.6461C73.384 29.7435 73.5403 29.859 73.6828 29.9905C73.8134 30.1166 73.9213 30.2646 74.0015 30.4279C74.0809 30.5993 74.1207 30.7864 74.1181 30.9754C74.1242 31.2151 74.0687 31.4524 73.957 31.6642C73.8574 31.8541 73.7126 32.0162 73.5354 32.1361C73.3442 32.2584 73.133 32.3458 72.9116 32.3944C72.6661 32.4475 72.4156 32.474 72.1644 32.4736C72.0567 32.4723 71.9492 32.4654 71.8422 32.4529C71.712 32.4529 71.5817 32.415 71.448 32.3909C71.3202 32.3651 71.1942 32.3306 71.071 32.2876C70.973 32.2568 70.8796 32.2127 70.7934 32.1567Z" fill="#FF0000"/>
<path d="M77.1646 30.693H75.0566V29.8389H77.1646V30.693Z" fill="white"/>
<path d="M79.5713 30.4693V32.3738H78.334V26.8325H80.2808C81.6724 26.8325 82.3682 27.4226 82.3682 28.6027C82.3772 28.861 82.3273 29.1179 82.2221 29.3537C82.1169 29.5895 81.9594 29.798 81.7615 29.9631C81.3098 30.3256 80.7416 30.5094 80.1643 30.4797L79.5713 30.4693ZM79.5713 27.7934V29.5154H80.0477C80.7093 29.5154 81.0417 29.2226 81.0417 28.6406C81.0417 28.0586 80.699 27.7865 80.0477 27.7865L79.5713 27.7934Z" fill="white"/>
<path d="M88.0245 32.3739H86.6706L86.2764 31.141H84.3125L83.9251 32.3739H82.5781L84.5867 26.8257H86.0605L88.0245 32.3739ZM85.9919 30.1801L85.399 28.3169C85.3503 28.1543 85.3192 27.9869 85.3064 27.8175H85.2756C85.2622 27.9814 85.23 28.1432 85.1796 28.2997L84.5798 30.1801H85.9919Z" fill="white"/>
<path d="M92.6678 32.1845C92.1701 32.3974 91.6318 32.4973 91.0912 32.4772C90.7246 32.497 90.3579 32.4405 90.0141 32.3114C89.6702 32.1822 89.3567 31.983 89.093 31.7264C88.8457 31.458 88.6542 31.1429 88.5294 30.7994C88.4047 30.4558 88.3492 30.0908 88.3663 29.7255C88.3497 29.329 88.4139 28.9334 88.5547 28.5627C88.6956 28.192 88.9102 27.8541 89.1855 27.5696C89.4633 27.2921 89.7951 27.0751 90.1602 26.9323C90.5252 26.7895 90.9157 26.7239 91.3071 26.7396C91.7727 26.7261 92.237 26.7961 92.6781 26.9462V28.1482C92.2975 27.9183 91.8609 27.7991 91.4168 27.8038C91.1854 27.7938 90.9545 27.8321 90.7386 27.9162C90.5227 28.0004 90.3265 28.1286 90.1623 28.2928C89.9984 28.4718 89.8718 28.6819 89.79 28.9108C89.7081 29.1397 89.6728 29.3827 89.6859 29.6256C89.6634 30.0952 89.8246 30.555 90.1349 30.9068C90.2925 31.0674 90.482 31.1931 90.691 31.2755C90.9 31.358 91.1239 31.3955 91.3482 31.3855C91.8144 31.3936 92.274 31.2746 92.6781 31.0411L92.6678 32.1845Z" fill="white"/>
<path d="M95.3376 26.8325V27.8003H94.8749V31.413H95.3376V32.3738H93.168V31.413H93.6307V27.8003H93.168V26.8325H95.3376Z" fill="white"/>
<path d="M99.3219 27.8519H97.375V29.2123H99.1642V30.2248H97.375V32.3738H96.1309V26.8325H99.3219V27.8519Z" fill="white"/>
<path d="M101.935 26.8325V27.8003H101.473V31.413H101.935V32.3738H99.7656V31.413H100.228V27.8003H99.7656V26.8325H101.935Z" fill="white"/>
<path d="M106.687 32.1845C106.188 32.3973 105.648 32.4973 105.107 32.4772C104.74 32.497 104.374 32.4405 104.03 32.3114C103.686 32.1822 103.372 31.983 103.109 31.7264C102.861 31.458 102.67 31.1429 102.545 30.7994C102.42 30.4558 102.365 30.0908 102.382 29.7255C102.366 29.3291 102.43 28.9336 102.571 28.563C102.712 28.1924 102.926 27.8544 103.201 27.5696C103.479 27.2921 103.811 27.0751 104.176 26.9323C104.541 26.7895 104.931 26.7239 105.323 26.7396C105.788 26.7268 106.252 26.7968 106.694 26.9462V28.1482C106.311 27.9193 105.874 27.8002 105.429 27.8038C105.198 27.7938 104.967 27.8321 104.751 27.9162C104.535 28.0004 104.339 28.1286 104.175 28.2928C104.009 28.4734 103.881 28.6858 103.799 28.9172C103.718 29.1486 103.683 29.3943 103.698 29.6394C103.676 30.109 103.837 30.5687 104.147 30.9205C104.305 31.0812 104.494 31.2069 104.703 31.2893C104.912 31.3718 105.136 31.4092 105.36 31.3993C105.828 31.4075 106.288 31.2885 106.694 31.0549L106.687 32.1845Z" fill="white"/>
<path d="M108.072 32.4781C107.888 32.4843 107.708 32.4175 107.572 32.2921C107.507 32.2349 107.455 32.1643 107.42 32.0852C107.386 32.0061 107.368 31.9203 107.369 31.8338C107.367 31.747 107.385 31.6609 107.422 31.5821C107.458 31.5033 107.512 31.4338 107.578 31.3789C107.721 31.2586 107.903 31.1949 108.089 31.1998C108.276 31.1926 108.459 31.2566 108.6 31.3789C108.665 31.4353 108.716 31.5053 108.751 31.584C108.785 31.6626 108.802 31.7479 108.799 31.8338C108.801 31.9215 108.784 32.0086 108.75 32.0889C108.715 32.1693 108.663 32.241 108.597 32.299C108.45 32.4219 108.263 32.4858 108.072 32.4781Z" fill="white"/>
<path d="M113.741 32.1845C113.243 32.3974 112.704 32.4974 112.164 32.4772C111.797 32.4972 111.431 32.4409 111.087 32.3117C110.743 32.1825 110.429 31.9832 110.166 31.7264C109.917 31.4587 109.725 31.1437 109.6 30.8C109.476 30.4563 109.421 30.0909 109.439 29.7255C109.423 29.3294 109.486 28.934 109.627 28.5634C109.767 28.1928 109.981 27.8547 110.255 27.5696C110.533 27.292 110.866 27.075 111.231 26.9322C111.597 26.7894 111.988 26.7238 112.38 26.7396C112.845 26.7264 113.31 26.7964 113.751 26.9462V28.1482C113.37 27.9193 112.933 27.8002 112.489 27.8038C112.258 27.7961 112.027 27.8368 111.811 27.9233C111.596 28.0099 111.401 28.1404 111.238 28.3066C111.074 28.4854 110.947 28.6954 110.864 28.9243C110.782 29.1532 110.746 29.3963 110.759 29.6394C110.736 30.1097 110.898 30.5701 111.211 30.9206C111.368 31.0816 111.558 31.2075 111.767 31.2899C111.976 31.3724 112.2 31.4097 112.424 31.3993C112.89 31.4074 113.35 31.2884 113.754 31.0549L113.741 32.1845Z" fill="white"/>
<path d="M117.039 32.4772C116.681 32.4908 116.323 32.4288 115.99 32.2954C115.658 32.1619 115.356 31.9599 115.106 31.7023C114.854 31.432 114.658 31.114 114.53 30.767C114.401 30.4199 114.343 30.0506 114.358 29.6807C114.324 28.8989 114.596 28.1348 115.116 27.5523C115.374 27.2815 115.687 27.0689 116.033 26.9288C116.379 26.7887 116.751 26.7242 117.124 26.7395C117.48 26.726 117.834 26.7884 118.164 26.9226C118.493 27.0568 118.791 27.2597 119.037 27.5179C119.539 28.078 119.801 28.8141 119.767 29.567C119.786 29.9528 119.728 30.3384 119.598 30.7018C119.468 31.0652 119.268 31.3994 119.01 31.685C118.755 31.9492 118.448 32.1564 118.108 32.2929C117.769 32.4294 117.404 32.4922 117.039 32.4772ZM117.09 27.8175C116.892 27.8117 116.696 27.8533 116.517 27.9389C116.338 28.0246 116.182 28.1518 116.062 28.31C115.786 28.6886 115.647 29.1501 115.668 29.6187C115.639 30.0814 115.769 30.5399 116.038 30.917C116.156 31.0713 116.309 31.1954 116.484 31.2791C116.659 31.3629 116.852 31.404 117.046 31.3992C117.241 31.4073 117.437 31.3691 117.615 31.2878C117.794 31.2065 117.951 31.0842 118.074 30.9308C118.344 30.5571 118.478 30.1007 118.451 29.6393C118.479 29.1633 118.35 28.6912 118.084 28.2962C117.969 28.1415 117.819 28.0171 117.646 27.9338C117.473 27.8504 117.282 27.8105 117.09 27.8175Z" fill="white"/>
<path d="M126.971 32.3738H125.744V29.0608C125.744 28.7164 125.744 28.3065 125.789 27.8726H125.758C125.717 28.1219 125.66 28.3681 125.586 28.6096L124.291 32.3979H123.263L121.946 28.6647C121.874 28.4098 121.816 28.1511 121.772 27.8898H121.737C121.772 28.4374 121.789 28.923 121.789 29.3294V32.3738H120.668V26.8325H122.488L123.616 30.1215C123.705 30.3792 123.771 30.6443 123.814 30.9136H123.835C123.907 30.6071 123.979 30.3419 124.054 30.1146L125.182 26.8325H126.957L126.971 32.3738Z" fill="white"/>
</g>
<defs>
<clipPath id="clip0">
<rect width="127.151" height="31.7877" fill="white" transform="translate(0.185547 0.689453)"/>
</clipPath>
</defs>
</svg>

<svg width="128" height="33" fill="none" xmlns="http://www.w3.org/2000/svg"><g clip-path="url(#clip0)"><path d="M30.544 32.374H3.867a3.654 3.654 0 01-1.815-.474 3.675 3.675 0 01-1.345-1.314 3.698 3.698 0 01-.086-3.643l8.912-16.845h8.014l-7.483 14.12a.584.584 0 000 .548.553.553 0 00.484.269h13.49a.479.479 0 00.484-.452.485.485 0 00-.045-.237L13.527.689H21.3l12.435 26.643a3.573 3.573 0 01-.213 3.396 3.49 3.49 0 01-2.979 1.646zM10.493 11.71L2.037 27.693a2.092 2.092 0 00.81 2.792c.31.177.663.27 1.02.27h26.69a1.905 1.905 0 001.628-.894A1.928 1.928 0 0032.292 28L20.295 2.284h-4.26l9.899 21.353a2.075 2.075 0 01-.134 2.01 2.085 2.085 0 01-1.762.969h-13.49A2.156 2.156 0 018.71 25.55a2.18 2.18 0 01-.048-2.13l6.211-11.71h-4.38z" fill="red"/><path d="M47.026 32.374H39.26L26.829 5.72a3.545 3.545 0 01.213-3.393A3.5 3.5 0 0130.005.69h26.687a3.653 3.653 0 011.81.475 3.675 3.675 0 011.343 1.31 3.698 3.698 0 01.093 3.636l-8.912 16.845H43.03l7.479-14.12a.58.58 0 000-.552.55.55 0 00-.48-.268H36.517a.482.482 0 00-.414.227.48.48 0 00-.028.468l10.951 23.664zm-6.759-1.619h4.247L34.615 9.403a2.105 2.105 0 01.89-2.742c.31-.17.659-.257 1.012-.255h13.491a2.155 2.155 0 011.861 1.08 2.182 2.182 0 01.017 2.158l-6.21 11.71h4.38l8.456-15.98a2.075 2.075 0 00-.803-2.798 2.048 2.048 0 00-1.027-.261H30.005a1.905 1.905 0 00-1.63.893 1.928 1.928 0 00-.108 1.862l12 25.685zm60.621-18.091a105.78 105.78 0 015.288 2.755l-1.323 2.18a96.237 96.237 0 00-4.836-2.803v3.237h-2.622v-3.444a15.309 15.309 0 01-4.216 3.134 20.653 20.653 0 00-1.697-2.366 13.35 13.35 0 005.125-2.886h-4.113V6.496h4.897V5.208h-5.597v-2.49h5.6V.93h2.623v1.788h5.662v2.49h-5.662v1.288h4.919v5.982h-4.919v1.598l.871-1.412zm-6.036 5.813c2.755.083 6.592.07 11.509-.041-.397 1.033-.73 1.898-.99 2.617-4.024 0-7.73-.034-11.12-.103-2.095 0-3.755-.671-4.98-2.015-.552.636-1.303 1.494-2.251 2.573l-1.159-3.1a91.334 91.334 0 011.944-1.7v-5.79h-1.84V8.163h4.424v8.572c.814 1.161 2.301 1.742 4.463 1.742zM88.713.91a68.753 68.753 0 012.502 4.07 93.912 93.912 0 00-2.543 1.35 59.125 59.125 0 00-2.252-4.194L88.713.91zm13.909 7.745h-2.605v1.677h2.605V8.655zm-7.811 1.677h2.584V8.655H94.81v1.677zm12.442 1.722h8.411V4.42h-7.51V1.664h18.269v2.755h-7.62v7.635h8.545v2.755h-8.534v6.43h-3.14v-6.457h-8.421v-2.728zm1.196-5.751l2.169-1.481a104.14 104.14 0 014.113 5.166l-2.498 1.66c-1.392-2.133-2.653-3.92-3.784-5.359v.014zm18.022.207a99.08 99.08 0 01-4.631 5.19l-2.108-1.722a47.185 47.185 0 004.302-5.156l2.437 1.688z" fill="#fff"/><path d="M69.955 15.367h6.324v-3.864h-5.087v-1.495h5.087V6.685h-5.703V5.19h3.77a43.056 43.056 0 00-2.18-2.72l1.24-.954a99.06 99.06 0 012.4 2.679l-1.303.995h3.668a28.594 28.594 0 002.509-3.674l1.631.995c-.758.957-1.52 1.85-2.282 2.68h4v1.494h-6.057v3.323h5.124v1.495h-5.124v3.864h6.406v1.509h-6.406v5.114H76.28v-5.114h-6.324v-1.509zm-2.501-1.994c.576.324 1.17.615 1.779.871a749.798 749.798 0 00-2.564 7.577l-1.84-.895a51.31 51.31 0 002.625-7.553zm-2.232-6.14a55.9 55.9 0 013.924 2.659l-1.155 1.515a42.292 42.292 0 00-3.77-2.824l1-1.35zm.99-5.386a49.24 49.24 0 013.866 2.845L68.94 6.125a49.132 49.132 0 00-3.77-3.052l1.042-1.226zm4.018 30.527h-.716l-.582-1.557H66.59l-.552 1.557h-.73l2.118-5.548h.668l2.136 5.548zm-1.494-2.132l-.884-2.345a2.836 2.836 0 01-.086-.372c-.02.126-.049.25-.089.372l-.857 2.362 1.916-.017zm2.057 1.915v-.768c.095.083.2.154.312.21.125.063.254.114.388.155a2.9 2.9 0 00.404.1c.124.022.25.034.377.034.313.024.625-.054.891-.22a.746.746 0 00.295-.64.756.756 0 00-.096-.393 1.188 1.188 0 00-.274-.304 2.62 2.62 0 00-.408-.261c-.158-.086-.343-.172-.51-.265-.169-.093-.374-.197-.539-.3a2.308 2.308 0 01-.435-.345 1.378 1.378 0 01-.291-.413 1.251 1.251 0 01-.114-.506 1.28 1.28 0 01.165-.661c.11-.184.258-.342.435-.462.19-.125.398-.217.617-.272.224-.058.454-.088.686-.09.406-.026.813.042 1.189.2v.73a2.145 2.145 0 00-1.255-.344c-.141 0-.282.015-.421.045-.133.027-.26.076-.377.145a.885.885 0 00-.27.258.692.692 0 00-.104.389.764.764 0 00.08.365c.056.11.135.206.232.282.116.096.241.179.374.248l.51.266c.2.096.384.2.563.306.167.098.323.213.466.345.13.126.238.274.318.437.08.171.12.358.117.547a1.4 1.4 0 01-.161.69c-.1.19-.244.351-.422.471-.19.122-.402.21-.623.258a3.098 3.098 0 01-1.07.059c-.13 0-.26-.038-.394-.062a2.864 2.864 0 01-.377-.103 1.134 1.134 0 01-.278-.131z" fill="red"/><path d="M77.165 30.693h-2.108v-.854h2.108v.854zm2.406-.223v1.904h-1.237v-5.542h1.947c1.391 0 2.087.59 2.087 1.77a1.698 1.698 0 01-.606 1.361 2.358 2.358 0 01-1.598.517l-.593-.01zm0-2.677v1.722h.477c.661 0 .994-.292.994-.874 0-.582-.343-.854-.994-.854l-.477.006zm8.454 4.581H86.67l-.395-1.233h-1.963l-.388 1.233h-1.347l2.009-5.548h1.474l1.963 5.548zm-2.033-2.194l-.593-1.863a2.36 2.36 0 01-.093-.5h-.03a2.143 2.143 0 01-.096.483l-.6 1.88h1.412zm6.676 2.004a3.662 3.662 0 01-1.577.293 2.656 2.656 0 01-1.998-.75 2.757 2.757 0 01-.727-2.002 2.93 2.93 0 01.82-2.155 2.846 2.846 0 012.121-.83c.466-.014.93.056 1.371.206v1.202a2.39 2.39 0 00-1.261-.344 1.67 1.67 0 00-1.255.489 1.824 1.824 0 00-.476 1.333 1.8 1.8 0 00.449 1.28 1.603 1.603 0 001.213.48c.466.008.926-.111 1.33-.345l-.01 1.143zm2.67-5.352v.968h-.463v3.613h.463v.96h-2.17v-.96h.463V27.8h-.463v-.968h2.17zm3.984 1.02h-1.947v1.36h1.79v1.013h-1.79v2.149h-1.244v-5.542h3.19v1.02zm2.613-1.02v.968h-.462v3.613h.462v.96h-2.17v-.96h.463V27.8h-.462v-.968h2.169zm4.752 5.352a3.681 3.681 0 01-1.58.293 2.655 2.655 0 01-1.998-.75 2.75 2.75 0 01-.727-2.002 2.936 2.936 0 01.819-2.155 2.85 2.85 0 012.122-.83c.465-.013.929.057 1.371.206v1.202a2.426 2.426 0 00-1.265-.344 1.67 1.67 0 00-1.254.489 1.822 1.822 0 00-.477 1.346c-.022.47.139.93.449 1.282a1.606 1.606 0 001.213.478 2.58 2.58 0 001.334-.344l-.007 1.13zm1.385.294a.703.703 0 01-.652-.393.62.62 0 01-.051-.251.578.578 0 01.209-.455.763.763 0 01.511-.18.737.737 0 01.511.18.585.585 0 01.199.455.596.596 0 01-.202.465.77.77 0 01-.525.18zm5.669-.294a3.665 3.665 0 01-1.577.293 2.65 2.65 0 01-1.998-.75 2.728 2.728 0 01-.727-2.002 2.934 2.934 0 01.816-2.155 2.853 2.853 0 012.125-.83 3.92 3.92 0 011.371.206v1.202a2.413 2.413 0 00-1.262-.344 1.674 1.674 0 00-1.251.503 1.83 1.83 0 00-.479 1.333c-.023.47.139.93.452 1.28a1.593 1.593 0 001.213.48 2.57 2.57 0 001.33-.345l-.013 1.13zm3.298.293a2.562 2.562 0 01-1.933-.775 2.786 2.786 0 01-.748-2.021 3 3 0 01.758-2.129 2.63 2.63 0 012.008-.813 2.507 2.507 0 011.913.779c.502.56.764 1.296.73 2.049a2.94 2.94 0 01-.757 2.118 2.6 2.6 0 01-1.971.792zm.051-4.66a1.242 1.242 0 00-1.028.493c-.276.379-.415.84-.394 1.309-.029.462.101.92.37 1.298a1.23 1.23 0 001.008.482 1.248 1.248 0 001.028-.468c.27-.374.404-.83.377-1.292a2.176 2.176 0 00-.367-1.343 1.188 1.188 0 00-.994-.479zm9.881 4.557h-1.227V29.06c0-.345 0-.755.045-1.188h-.031a5.667 5.667 0 01-.172.737l-1.295 3.788h-1.028l-1.317-3.733a7.326 7.326 0 01-.174-.775h-.035c.035.547.052 1.033.052 1.44v3.044h-1.121v-5.542h1.82l1.128 3.29c.089.257.155.522.198.792h.021a9.56 9.56 0 01.219-.8l1.128-3.282h1.775l.014 5.542z" fill="#fff"/></g><defs><clipPath id="clip0"><path fill="#fff" transform="translate(.186 .69)" d="M0 0h127.151v31.788H0z"/></clipPath></defs></svg>
